packages/kaspersky-hexa-ui-icons/src/iconsSVGs/24/SalePetkaTag.svg

<svg width="24" height="24" viewBox="0 0 24 24" fill="none" xmlns="http://www.w3.org/2000/svg">
<path fill-rule="evenodd" clip-rule="evenodd" d="M12.667 10.0004C13.0349 10.0006 13.3328 10.2985 13.333 10.6664C13.333 11.0345 13.035 11.3333 12.667 11.3334C12.667 11.977 13.3126 12.6663 14.333 12.6664C15.3536 12.6664 16 11.9771 16 11.3334C16 10.9652 16.2988 10.6664 16.667 10.6664C17.035 10.6666 17.333 10.9653 17.333 11.3334C17.333 12.5533 16.4566 13.4915 15.333 13.8461V14.6664C15.333 16.5074 13.8409 18.0004 12 18.0004C10.1591 18.0004 8.66699 16.5074 8.66699 14.6664V13.8461C7.54342 13.4915 6.667 12.5533 6.66699 11.3334C6.66699 10.9653 6.96497 10.6666 7.33301 10.6664C7.7012 10.6664 8 10.9652 8 11.3334C8.00001 11.9771 8.64641 12.6664 9.66699 12.6664C10.6874 12.6663 11.333 11.977 11.333 11.3334C10.965 11.3333 10.667 11.0345 10.667 10.6664C10.6672 10.2985 10.9651 10.0006 11.333 10.0004H12.667ZM12.667 14.6664C12.667 15.0346 12.3682 15.3334 12 15.3334C11.6318 15.3334 11.333 15.0346 11.333 14.6664V13.5492C10.9358 13.7835 10.4782 13.9345 10 13.9828V14.6664C10 15.771 10.8954 16.6664 12 16.6664C13.1046 16.6664 14 15.771 14 14.6664V13.9828C13.5218 13.9345 13.0642 13.7835 12.667 13.5492V14.6664Z" fill="black"/>
<path d="M9 7.33343L9.10254 7.33831C9.60667 7.38964 10 7.81575 10 8.33343C10 8.88571 9.55228 9.33343 9 9.33343L8.89746 9.32854C8.39334 9.27721 8 8.8511 8 8.33343C8 7.78114 8.44772 7.33343 9 7.33343Z" fill="black"/>
<path d="M15 7.33343L15.1025 7.33831C15.6067 7.38964 16 7.81575 16 8.33343C16 8.88571 15.5523 9.33343 15 9.33343L14.8975 9.32854C14.3933 9.27721 14 8.8511 14 8.33343C14 7.78114 14.4477 7.33343 15 7.33343Z" fill="black"/>
<path fill-rule="evenodd" clip-rule="evenodd" d="M12.0586 1.23772C12.1097 1.23844 12.1608 1.23997 12.2119 1.24261C12.2442 1.24427 12.2764 1.24604 12.3086 1.24847C12.3604 1.25236 12.4122 1.25724 12.4639 1.26311C12.4984 1.26705 12.5329 1.27197 12.5674 1.27679C12.6157 1.28352 12.6638 1.29079 12.7119 1.29925C12.7498 1.30591 12.7875 1.31299 12.8252 1.32073C12.8677 1.32944 12.9099 1.33898 12.9521 1.34905C12.9949 1.35925 13.0376 1.36968 13.0801 1.38128C13.0894 1.38383 13.0991 1.38549 13.1084 1.38811L13.2988 1.44671C13.3027 1.44801 13.3066 1.4493 13.3105 1.45061C13.368 1.47 13.4247 1.49208 13.4814 1.51409C13.5094 1.52492 13.5377 1.53486 13.5654 1.54632C13.7253 1.61236 13.8826 1.68867 14.0352 1.77581L19.8896 5.12151L20.123 5.26604C20.1976 5.31554 20.2702 5.36745 20.3408 5.42132C20.452 5.50603 20.5571 5.59706 20.6582 5.69182C20.6812 5.71342 20.705 5.73419 20.7275 5.75628C20.7687 5.79667 20.8074 5.83929 20.8467 5.88128C20.864 5.89977 20.8825 5.91717 20.8994 5.93597C20.9361 5.97666 20.9709 6.01891 21.0059 6.06097C21.0285 6.08819 21.0513 6.11522 21.0732 6.143C21.1022 6.17974 21.1296 6.21763 21.1572 6.2553C21.1813 6.28801 21.2055 6.32054 21.2285 6.35393C21.2538 6.39052 21.2777 6.42789 21.3018 6.46526C21.3232 6.49862 21.3448 6.53189 21.3652 6.56585C21.3881 6.60384 21.41 6.64237 21.4316 6.68108C21.4558 6.72431 21.4793 6.76786 21.502 6.81194C21.5172 6.84174 21.5323 6.87161 21.5469 6.90179C21.5683 6.94627 21.5885 6.99129 21.6084 7.03655C21.6253 7.07504 21.6415 7.11374 21.6572 7.15276C21.6725 7.19062 21.6871 7.22869 21.7012 7.26702C21.7168 7.30943 21.7319 7.35199 21.7461 7.39495C21.759 7.43384 21.7715 7.47282 21.7832 7.51214C21.7962 7.55587 21.8087 7.59974 21.8203 7.64397C21.8293 7.67833 21.8376 7.71285 21.8457 7.74749C21.857 7.79581 21.8684 7.84416 21.8779 7.893C21.9037 8.02415 21.9217 8.15712 21.9346 8.29143C21.9385 8.33303 21.9436 8.37458 21.9463 8.41643C21.952 8.5045 21.956 8.59305 21.9561 8.68206V15.3178C21.9561 15.4065 21.952 15.4947 21.9463 15.5824C21.946 15.5873 21.9456 15.5922 21.9453 15.5971C21.9394 15.6833 21.9302 15.7689 21.9189 15.8539C21.9183 15.8588 21.9186 15.8637 21.918 15.8686C21.9078 15.9437 21.8951 16.0182 21.8809 16.0922C21.8725 16.1356 21.8613 16.1782 21.8516 16.2211C21.8414 16.2659 21.8319 16.3106 21.8203 16.3549C21.8096 16.3959 21.7981 16.4365 21.7861 16.477C21.7741 16.5178 21.7623 16.5587 21.749 16.5991C21.7373 16.6348 21.7246 16.6701 21.7119 16.7055C21.6946 16.7537 21.6764 16.8016 21.6572 16.8491C21.6423 16.8862 21.6264 16.9228 21.6104 16.9594C21.5885 17.0094 21.5658 17.0588 21.542 17.1078C21.5313 17.1299 21.5199 17.1515 21.5088 17.1733C21.4807 17.2286 21.4515 17.2833 21.4209 17.3373C21.4078 17.3604 21.3954 17.3838 21.3818 17.4067C21.3495 17.4613 21.3151 17.5147 21.2803 17.5678C21.2671 17.5878 21.2537 17.6076 21.2402 17.6274C21.2085 17.6739 21.1762 17.7199 21.1426 17.7651C21.1226 17.7919 21.1027 17.8188 21.082 17.8451C21.0511 17.8847 21.0187 17.923 20.9863 17.9614C20.9606 17.9919 20.9349 18.0224 20.9082 18.0522C20.8755 18.0887 20.8417 18.1242 20.8076 18.1596C20.784 18.1841 20.7616 18.2098 20.7373 18.2338C20.6988 18.2718 20.6582 18.3076 20.6182 18.3442C20.5911 18.3689 20.5649 18.3944 20.5371 18.4184C20.4064 18.5315 20.2689 18.638 20.123 18.7348L19.8896 18.8783L14.0352 22.2241C13.9593 22.2674 13.8815 22.307 13.8037 22.3451C13.7673 22.363 13.7302 22.3792 13.6934 22.3959C13.6511 22.4151 13.6092 22.4349 13.5664 22.4526C13.5384 22.4642 13.5097 22.4739 13.4814 22.4848C13.4246 22.5068 13.368 22.5289 13.3105 22.5483C13.2856 22.5567 13.2604 22.5638 13.2354 22.5717C13.1831 22.5882 13.1308 22.6042 13.0781 22.6186C13.0447 22.6277 13.0111 22.6357 12.9775 22.644C12.9194 22.6583 12.8613 22.6723 12.8027 22.684C12.7849 22.6876 12.7669 22.6905 12.749 22.6938C12.6873 22.7052 12.6255 22.7154 12.5635 22.7241C12.5303 22.7286 12.4971 22.733 12.4639 22.7367C12.4148 22.7423 12.3656 22.7466 12.3164 22.7504C12.2764 22.7535 12.2364 22.7563 12.1963 22.7582C12.1494 22.7605 12.1026 22.7615 12.0557 22.7621C12.0228 22.7626 11.9899 22.7625 11.957 22.7621C11.9052 22.7616 11.8535 22.7597 11.8018 22.7573C11.763 22.7554 11.7243 22.7534 11.6855 22.7504C11.6428 22.7471 11.6002 22.7433 11.5576 22.7387C11.5155 22.7341 11.4736 22.7289 11.4316 22.7231C11.3787 22.7157 11.3261 22.7071 11.2734 22.6977C11.247 22.6929 11.2207 22.6883 11.1943 22.683C11.1322 22.6706 11.0704 22.6564 11.0088 22.641C10.986 22.6354 10.9631 22.6305 10.9404 22.6244C10.6893 22.5573 10.4428 22.4668 10.2051 22.351L10.1904 22.3432C10.1145 22.3058 10.0389 22.2664 9.96484 22.2241L4.11133 18.8783C2.83347 18.1481 2.04497 16.7896 2.04492 15.3178V8.68206C2.04494 8.53021 2.05481 8.37977 2.07129 8.23089C2.21449 6.93696 2.96548 5.77633 4.11133 5.12151L9.96484 1.77581C10.1525 1.66855 10.3474 1.57867 10.5459 1.50335C10.593 1.48549 10.64 1.46766 10.6875 1.45159C10.7244 1.43912 10.7617 1.42782 10.7988 1.41643C10.8401 1.40378 10.8813 1.39065 10.9229 1.37932C10.972 1.36596 11.0218 1.35567 11.0713 1.34417C11.1062 1.33606 11.1408 1.32694 11.1758 1.31975C11.2118 1.31237 11.248 1.30663 11.2842 1.30022C11.3381 1.29065 11.3921 1.28125 11.4463 1.27386C11.4778 1.26957 11.5094 1.26667 11.541 1.26311C11.5891 1.25769 11.6373 1.25316 11.6855 1.24944C11.7272 1.24624 11.7688 1.24356 11.8105 1.24163C11.8542 1.23961 11.8978 1.23835 11.9414 1.23772C11.9805 1.23716 12.0195 1.23717 12.0586 1.23772ZM13.043 3.51311C12.5533 3.23332 11.9787 3.16479 11.4482 3.30901C11.3412 3.33814 11.2362 3.37687 11.1338 3.42327C11.1162 3.43125 11.0985 3.43919 11.0811 3.44768L10.958 3.51311L5.10352 6.85784C4.58229 7.15568 4.22084 7.65808 4.09473 8.23089C4.06246 8.37748 4.04495 8.52844 4.04492 8.68206V15.3178C4.04499 16.0717 4.44895 16.7679 5.10352 17.142L10.958 20.4877L11.0811 20.5522C11.6249 20.8168 12.2549 20.8335 12.8096 20.602C12.889 20.5688 12.9672 20.531 13.043 20.4877L18.8965 17.142C18.9121 17.1331 18.9271 17.123 18.9424 17.1137L19.0166 17.0678C19.4875 16.7552 19.809 16.2678 19.916 15.7201C19.9304 15.6463 19.9408 15.5713 19.9473 15.4955C19.9518 15.4422 19.9546 15.3885 19.9551 15.3344V8.68206C19.9551 8.63789 19.9539 8.59394 19.9512 8.55022C19.9488 8.51191 19.9449 8.47385 19.9404 8.43597C19.9342 8.38308 19.9262 8.33064 19.916 8.27874C19.9123 8.25972 19.9076 8.24096 19.9033 8.2221C19.8965 8.1916 19.889 8.16134 19.8809 8.13128C19.7596 7.68614 19.4949 7.28992 19.123 7.00823L19.0166 6.93206C18.9776 6.90619 18.9375 6.88126 18.8965 6.85784L13.043 3.51311Z" fill="black"/>
</svg>

<svg xmlns="http://www.w3.org/2000/svg" width="24" height="24" fill="none" viewBox="0 0 24 24"><path fill="#000" fill-rule="evenodd" d="M12.667 10.0004a.666.666 0 0 1 .666.666.6666.6666 0 0 1-.666.667c0 .6436.6456 1.3329 1.666 1.333 1.0206 0 1.667-.6893 1.667-1.333 0-.3682.2988-.667.667-.667a.6667.6667 0 0 1 .666.667c0 1.2199-.8764 2.1581-2 2.5127v.8203c0 1.841-1.4921 3.334-3.333 3.334s-3.333-1.493-3.333-3.334v-.8203c-1.1236-.3546-2-1.2928-2-2.5127 0-.3681.298-.6668.666-.667.3682 0 .667.2988.667.667 0 .6437.6464 1.333 1.667 1.333 1.0204-.0001 1.666-.6894 1.666-1.333a.6666.6666 0 0 1-.666-.667.666.666 0 0 1 .666-.666zm0 4.666a.667.667 0 0 1-.667.667.667.667 0 0 1-.667-.667v-1.1172c-.3972.2343-.8548.3853-1.333.4336v.6836c0 1.1046.8954 2 2 2s2-.8954 2-2v-.6836c-.4782-.0483-.9358-.1993-1.333-.4336z" clip-rule="evenodd"/><path fill="#000" d="m9 7.333.103.005c.504.051.898.477.898.995 0 .552-.448 1-1 1l-.102-.005C8.393 9.277 8 8.851 8 8.334c0-.552.448-1 1-1m6-.001.103.005c.504.051.898.477.898.995 0 .552-.448 1-1 1l-.102-.005c-.506-.051-.899-.477-.899-.994 0-.552.448-1 1-1"/><path fill="#000" fill-rule="evenodd" d="M12.0586 1.2377a4.1 4.1 0 0 1 .4053.0254c.0345.004.069.0089.1035.0137a4 4 0 0 1 .2578.044q.0637.013.1269.0283a4 4 0 0 1 .128.0322c.0093.0025.019.0042.0283.0068l.1904.0586.0117.004c.0575.0193.1142.0414.1709.0634.028.0108.0563.0208.084.0322.1599.066.3172.1424.4698.2295l5.8544 3.3457.2334.1445a4 4 0 0 1 .2178.1553 4.1 4.1 0 0 1 .3174.2705c.023.0216.0468.0424.0693.0645.0412.0404.0799.083.1192.125.0173.0185.0358.0359.0527.0547.0367.0407.0715.083.1065.125.0226.0272.0454.0542.0673.082.029.0367.0564.0746.084.1123.0241.0327.0483.0652.0713.0986.0253.0366.0492.074.0733.1114.0214.0333.043.0666.0634.1006q.0342.057.0664.1152a4.3 4.3 0 0 1 .1153.2207 4.3 4.3 0 0 1 .2363.6103q.0196.0656.0371.1319.0134.0515.0254.1035c.0113.0483.0227.0967.0322.1455.0258.1312.0438.2641.0567.3984.0039.0416.009.0832.0117.125a4 4 0 0 1 .0098.2657v6.6357c0 .0887-.0041.1769-.0098.2646l-.001.0147a4 4 0 0 1-.0264.2568c-.0006.0049-.0003.0098-.0009.0147a4 4 0 0 1-.0371.2236c-.0084.0434-.0196.086-.0293.1289-.0102.0448-.0197.0895-.0313.1338a4 4 0 0 1-.0342.1221c-.012.0408-.0238.0817-.0371.1221-.0117.0357-.0244.071-.0371.1064a4 4 0 0 1-.0547.1436 4 4 0 0 1-.0468.1103 4 4 0 0 1-.0684.1484c-.0107.0221-.0221.0437-.0332.0655a4 4 0 0 1-.0879.164c-.0131.0231-.0255.0465-.0391.0694a4 4 0 0 1-.1416.2207 4 4 0 0 1-.0976.1377c-.02.0268-.0399.0537-.0606.08-.0309.0396-.0633.0779-.0957.1163a4 4 0 0 1-.0781.0908 4 4 0 0 1-.1006.1074c-.0236.0245-.046.0502-.0703.0742-.0385.038-.0791.0738-.1191.1104-.0271.0247-.0533.0502-.0811.0742a4.1 4.1 0 0 1-.4141.3164l-.2334.1435-5.8544 3.3458a4 4 0 0 1-.2315.121c-.0364.0179-.0735.0341-.1103.0508-.0423.0192-.0842.039-.127.0567-.028.0116-.0567.0213-.085.0322-.0568.022-.1134.0441-.1709.0635-.0249.0084-.0501.0155-.0751.0234a4 4 0 0 1-.1573.0469c-.0334.0091-.067.0171-.1006.0254a4 4 0 0 1-.1748.04c-.0178.0036-.0358.0065-.0537.0098a4 4 0 0 1-.1855.0303 4 4 0 0 1-.0996.0126 4 4 0 0 1-.1475.0137q-.06.0048-.1201.0078a4 4 0 0 1-.1406.0039 4 4 0 0 1-.2539-.0048 4 4 0 0 1-.1163-.0069 4 4 0 0 1-.2539-.0273 4 4 0 0 1-.1582-.0254c-.0264-.0048-.0527-.0094-.0791-.0147a4 4 0 0 1-.1855-.042c-.0228-.0056-.0457-.0105-.0684-.0166a4.1 4.1 0 0 1-.7353-.2734l-.0147-.0078a4 4 0 0 1-.2256-.1191l-5.8535-3.3458a4.1 4.1 0 0 1-2.0664-3.5605V8.6821c0-.1519.01-.3023.0264-.4512a4.1 4.1 0 0 1 2.04-3.1094l5.8535-3.3457a4.1 4.1 0 0 1 .5811-.2725c.0471-.0178.0941-.0356.1416-.0517.0369-.0125.0742-.0238.1113-.0352.0413-.0126.0825-.0258.1241-.037.0491-.0134.0989-.0237.1484-.0352.0349-.0081.0695-.0173.1045-.0245.036-.0073.0722-.013.1084-.0195a4 4 0 0 1 .1621-.0263c.0315-.0043.0631-.0072.0947-.0108a4.1 4.1 0 0 1 .5176-.0254m.9844 2.2754a2.104 2.104 0 0 0-1.5948-.204 2.1 2.1 0 0 0-.3144.1142q-.0265.0118-.0527.0244l-.1231.0654-5.8545 3.3447a2.1 2.1 0 0 0-1.0088 1.373 2.1 2.1 0 0 0-.0498.4513v6.6357c0 .7539.404 1.4501 1.0586 1.8242l5.8545 3.3457.1231.0645a2.102 2.102 0 0 0 1.7285.0498 2.1 2.1 0 0 0 .2334-.1143l5.8535-3.3457c.0156-.0089.0306-.019.0459-.0283l.0742-.0459a2.101 2.101 0 0 0 .9307-1.5723 2.2 2.2 0 0 0 .0078-.1611V8.6821q0-.0663-.0039-.1319a2 2 0 0 0-.0108-.1142 2 2 0 0 0-.0244-.1573c-.0037-.019-.0084-.0377-.0127-.0566a2.1 2.1 0 0 0-.7803-1.2139l-.1064-.0761a2 2 0 0 0-.1201-.0743z" clip-rule="evenodd"/></svg>
